public/assets/logos/react.svg

<svg width="100" height="91" viewBox="0 0 100 91" fill="none" xmlns="http://www.w3.org/2000/svg">
    <g clip-path="url(#clip0_221_30)">
        <path d="M100 45.3987C100 38.7038 91.704 32.3591 78.9849 28.4246C81.9201 15.3232 80.6156 4.89976 74.8675 1.56261C73.5426 0.779821 71.9935 0.409027 70.3017 0.409027V5.00276C71.1088 4.97746 71.9089 5.16187 72.6254 5.53835C75.3975 7.14512 76.6001 13.2632 75.6625 21.1323C75.4382 23.0687 75.0713 25.108 74.6229 27.1886C70.3625 26.1508 66.0385 25.4007 61.6796 24.9432C59.083 21.3231 56.2502 17.8822 53.2002 14.6434C59.8451 8.4017 66.0824 4.98215 70.3221 4.98215V0.388428C64.7167 0.388428 57.3787 4.42597 49.9592 11.4299C42.5398 4.46716 35.2018 0.470825 29.5964 0.470825V5.06456C33.8157 5.06456 40.0734 8.4635 46.7183 14.664C43.6828 17.8917 40.8701 21.3262 38.3001 24.9432C33.9323 25.3955 29.6007 26.1526 25.3363 27.2092C24.8675 25.1492 24.521 23.1511 24.2764 21.2353C23.3184 13.3662 24.5006 7.24812 27.2523 5.62075C27.8638 5.24995 28.6588 5.08515 29.5964 5.08515V0.491427C27.8842 0.491427 26.3351 0.862221 24.9898 1.64501C19.2621 4.98216 17.978 15.385 20.9336 28.4452C8.2552 32.4003 0 38.7244 0 45.3987C0 52.0936 8.29597 58.4383 21.0151 62.3729C18.0799 75.4743 19.3844 85.8977 25.1325 89.2349C26.4574 90.0176 28.0065 90.3884 29.7187 90.3884C35.3241 90.3884 42.6621 86.3509 50.0815 79.347C57.501 86.3097 64.839 90.306 70.4444 90.306C72.1566 90.306 73.7057 89.9352 75.051 89.1524C80.7786 85.8153 82.0628 75.4125 79.1072 62.3523C91.7448 58.4177 100 52.073 100 45.3987ZM73.4611 31.6587C72.7069 34.3161 71.7693 37.0559 70.7093 39.7956C69.8736 38.1476 68.9971 36.4997 68.0391 34.8517C67.1015 33.2037 66.1027 31.5969 65.1039 30.0314C67.9984 30.464 70.7909 30.9996 73.4611 31.6587ZM64.1256 53.5974C62.5357 56.3784 60.905 59.0151 59.2132 61.4665C56.1761 61.7343 53.0982 61.8785 50 61.8785C46.9221 61.8785 43.8443 61.7343 40.8275 61.4871C39.1357 59.0357 37.4915 56.4264 35.8948 53.6592C34.3457 50.9606 32.9324 48.2278 31.6551 45.4605C32.9189 42.7002 34.3457 39.9398 35.8744 37.2413C37.4643 34.4603 39.095 31.8235 40.7868 29.3722C43.8239 29.1044 46.9018 28.9602 50 28.9602C53.0779 28.9602 56.1557 29.1044 59.1724 29.3516C60.8643 31.8029 62.5085 34.4122 64.1052 37.1795C65.6543 39.878 67.0675 42.6109 68.3449 45.3781C67.0607 48.1385 65.6543 50.8988 64.1256 53.5974ZM70.7093 50.9194C71.81 53.6798 72.7477 56.4402 73.5222 59.1181C70.852 59.7773 68.0391 60.3335 65.1243 60.7661C66.1231 59.1799 67.1219 57.5525 68.0595 55.884C68.9971 54.236 69.8736 52.5674 70.7093 50.9194ZM50.0408 72.8993C48.0413 70.8017 46.15 68.6014 44.3742 66.3074C46.2087 66.3898 48.084 66.4516 49.9796 66.4516C51.8956 66.4516 53.7913 66.4104 55.6462 66.3074C53.8967 68.6052 52.0255 70.8057 50.0408 72.8993L50.0408 72.8993ZM34.8757 60.7661C31.9812 60.3335 29.1887 59.7979 26.5185 59.1387C27.2727 56.4814 28.2104 53.7416 29.2703 51.0019C30.106 52.6498 30.9825 54.2978 31.9405 55.9458C32.8985 57.5938 33.8769 59.2005 34.8757 60.7661H34.8757ZM49.9389 17.8982C51.9383 19.9958 53.8296 22.196 55.6054 24.4901C53.7709 24.4077 51.8956 24.3459 50 24.3459C48.084 24.3459 46.1883 24.3871 44.3335 24.4901C46.083 22.1922 47.9542 19.9917 49.9388 17.8981L49.9389 17.8982ZM34.8553 30.0314C33.8565 31.6175 32.8577 33.2449 31.9201 34.9135C30.9825 36.5615 30.106 38.2094 29.2703 39.8574C28.1696 37.0971 27.232 34.3367 26.4574 31.6587C29.1276 31.0202 31.9405 30.464 34.8553 30.0314L34.8553 30.0314ZM16.4085 55.8222C9.19281 52.7116 4.52505 48.6329 4.52505 45.3987C4.52505 42.1646 9.19281 38.0652 16.4085 34.9753C18.1614 34.2131 20.0774 33.5333 22.0546 32.8947C23.3016 37.1762 24.8339 41.3675 26.6408 45.4399C24.8533 49.4922 23.3414 53.663 22.1158 57.9233C20.0978 57.2848 18.1818 56.5844 16.4085 55.8222ZM27.3746 85.2591C24.6025 83.6523 23.3999 77.5342 24.3375 69.6652C24.5618 67.7288 24.9286 65.6894 25.3771 63.6089C29.6375 64.6466 33.9615 65.3968 38.3204 65.8542C40.917 69.4743 43.7498 72.9153 46.7998 76.1541C40.1549 82.3958 33.9177 85.8153 29.6779 85.8153C28.7607 85.7947 27.9861 85.6093 27.3746 85.2591ZM75.7236 69.5622C76.6816 77.4312 75.4994 83.5493 72.7477 85.1767C72.1362 85.5475 71.3412 85.7123 70.4036 85.7123C66.1843 85.7123 59.9266 82.3134 53.2817 76.1128C56.3172 72.8852 59.1299 69.4507 61.7 65.8336C66.0677 65.3814 70.3993 64.6242 74.6637 63.5676C75.1212 65.5456 75.475 67.5465 75.7236 69.5622ZM83.5711 55.8222C81.8182 56.5844 79.9022 57.2641 77.925 57.9027C76.678 53.6213 75.1457 49.4299 73.3388 45.3575C75.1263 41.3052 76.6382 37.1344 77.8638 32.8741C79.8818 33.5127 81.7978 34.2131 83.5915 34.9753C90.8072 38.0858 95.4749 42.1646 95.4749 45.3987C95.4546 48.6329 90.7868 52.7322 83.5711 55.8222Z"
              fill="#61DAFB"/>
        <path d="M50.3151 54.8281C55.4597 54.8281 59.6303 50.6133 59.6303 45.4141C59.6303 40.2148 55.4597 36 50.3151 36C45.1705 36 41 40.2148 41 45.4141C41 50.6133 45.1705 54.8281 50.3151 54.8281Z"
              fill="#61DAFB"/>
    </g>
    <defs>
        <clipPath id="clip0_221_30">
            <rect width="100" height="90" fill="white" transform="translate(0 0.388428)"/>
        </clipPath>
    </defs>
</svg>

<svg width="100" height="91" viewBox="0 0 100 91" fill="none" xmlns="http://www.w3.org/2000/svg"><g clip-path="url(#a)" fill="#61DAFB"><path d="M100 45.399c0-6.695-8.296-13.04-21.015-16.974C81.92 15.323 80.615 4.9 74.868 1.563 73.543.78 71.994.409 70.302.409v4.594a4.68 4.68 0 0 1 2.323.535c2.772 1.607 3.975 7.725 3.037 15.594-.224 1.937-.59 3.976-1.04 6.057a97.84 97.84 0 0 0-12.942-2.246 100.263 100.263 0 0 0-8.48-10.3c6.645-6.241 12.882-9.66 17.122-9.66V.387C64.717.388 57.38 4.426 49.96 11.43 42.54 4.467 35.202.47 29.596.47v4.595c4.22 0 10.477 3.398 17.122 9.599a97.086 97.086 0 0 0-8.418 10.28 94.16 94.16 0 0 0-12.964 2.265 62.75 62.75 0 0 1-1.06-5.974c-.958-7.869.225-13.987 2.976-15.614.612-.371 1.407-.536 2.344-.536V.491c-1.712 0-3.26.371-4.606 1.154-5.728 3.337-7.012 13.74-4.056 26.8C8.255 32.4 0 38.725 0 45.4c0 6.695 8.296 13.04 21.015 16.974-2.935 13.101-1.63 23.525 4.117 26.862 1.325.783 2.874 1.153 4.587 1.153 5.605 0 12.943-4.037 20.362-11.041 7.42 6.963 14.758 10.959 20.363 10.959 1.713 0 3.262-.37 4.607-1.154 5.728-3.337 7.012-13.74 4.056-26.8C91.745 58.418 100 52.073 100 45.4Zm-26.539-13.74c-.754 2.657-1.692 5.397-2.752 8.137a97.814 97.814 0 0 0-2.67-4.944 111.562 111.562 0 0 0-2.935-4.82c2.894.432 5.687.968 8.357 1.627Zm-9.335 21.938c-1.59 2.781-3.221 5.418-4.913 7.87a104.95 104.95 0 0 1-9.213.412c-3.078 0-6.156-.145-9.172-.392a114.697 114.697 0 0 1-4.933-7.828 104.075 104.075 0 0 1-4.24-8.198c1.264-2.76 2.69-5.521 4.22-8.22 1.59-2.78 3.22-5.418 4.912-7.869A104.95 104.95 0 0 1 50 28.96c3.078 0 6.156.144 9.172.392a114.609 114.609 0 0 1 4.933 7.827 104.107 104.107 0 0 1 4.24 8.2 115.83 115.83 0 0 1-4.22 8.218Zm6.583-2.678a88.91 88.91 0 0 1 2.813 8.2 90.625 90.625 0 0 1-8.398 1.647 114.048 114.048 0 0 0 2.936-4.882 117.438 117.438 0 0 0 2.65-4.965ZM50.041 72.9a84.505 84.505 0 0 1-5.667-6.592c1.835.083 3.71.145 5.606.145 1.916 0 3.811-.042 5.666-.145a80.19 80.19 0 0 1-5.605 6.592ZM34.876 60.766a91.11 91.11 0 0 1-8.357-1.627c.754-2.658 1.691-5.397 2.751-8.137a97.857 97.857 0 0 0 2.67 4.944 136.643 136.643 0 0 0 2.936 4.82Zm15.063-42.868c2 2.098 3.89 4.298 5.666 6.592-1.834-.082-3.71-.144-5.605-.144-1.916 0-3.812.041-5.666.144a80.194 80.194 0 0 1 5.605-6.592ZM34.855 30.031a113.924 113.924 0 0 0-5.585 9.826 88.919 88.919 0 0 1-2.813-8.198 98.101 98.101 0 0 1 8.398-1.628ZM16.41 55.822C9.192 52.712 4.524 48.632 4.524 45.4c0-3.234 4.668-7.334 11.883-10.424 1.753-.762 3.67-1.442 5.647-2.08A99.62 99.62 0 0 0 26.64 45.44a98.202 98.202 0 0 0-4.525 12.483 61.46 61.46 0 0 1-5.707-2.1ZM27.374 85.26c-2.773-1.607-3.975-7.725-3.038-15.594.225-1.936.592-3.976 1.04-6.056a97.84 97.84 0 0 0 12.943 2.245c2.597 3.62 5.43 7.061 8.48 10.3-6.645 6.242-12.882 9.661-17.122 9.661-.917-.02-1.692-.206-2.303-.556Zm48.349-15.697c.958 7.87-.225 13.987-2.976 15.615-.612.37-1.407.535-2.344.535-4.22 0-10.477-3.399-17.122-9.6A97.079 97.079 0 0 0 61.7 65.835c4.368-.453 8.7-1.21 12.964-2.266a58.233 58.233 0 0 1 1.06 5.994Zm7.847-13.74c-1.753.762-3.669 1.442-5.646 2.08a99.626 99.626 0 0 0-4.586-12.544 98.202 98.202 0 0 0 4.525-12.484 64.199 64.199 0 0 1 5.727 2.101c7.216 3.11 11.884 7.19 11.884 10.424-.02 3.234-4.688 7.333-11.904 10.423Z"/><path d="M50.315 54.828c5.145 0 9.315-4.215 9.315-9.414 0-5.2-4.17-9.414-9.315-9.414S41 40.215 41 45.414c0 5.2 4.17 9.414 9.315 9.414Z"/></g><defs><clipPath id="a"><path fill="#fff" d="M0 .388h100v90H0z"/></clipPath></defs></svg>
